X:15
T:WMNSWRKB1-  Gigga to the Highway to Edinburgh
S:Oswald's CPC4
Q:1/4=120
L:1/8
M:6/8
K:Dm
F|DGG G2F|GBc dgf|"tr"d2c B/c/dc|BFFF2F|DGGG2F| GBc dgg|\
dbg fdc|BGG G2::\
g|g2b fdB|cdf g2b|gdB B/c/dc|BFFF2B|GBF GBF|GBc dgf|dbg
fdc|BGGG2:|]


